build/images/g28.svg

<svg width="138" height="138" viewBox="0 0 138 138" fill="none" xmlns="http://www.w3.org/2000/svg">
<circle cx="69" cy="69" r="69" fill="#76BD5E"/>
<g clip-path="url(#clip0)">
<path d="M68.5001 91.5846H68.4093C68.4093 91.5846 68.4093 91.5846 68.3911 91.5846C67.3921 91.5846 66.5747 92.3838 66.5747 93.3828C66.5747 94.3819 67.3739 95.1992 68.3729 95.2174H68.4819C69.481 95.2174 70.2983 94.4 70.2983 93.401C70.3165 92.402 69.4991 91.5846 68.5001 91.5846Z" fill="white"/>
<path d="M88.6075 83.1201C94.3655 80.0503 97.5442 75.8544 97.5442 71.2953C97.5442 66.7361 94.3655 62.522 88.6075 59.4705C83.2128 56.6005 76.0743 55.0203 68.4999 55.0203C60.9255 55.0203 53.8052 56.6005 48.3923 59.4705C42.6343 62.5402 39.4556 66.7361 39.4556 71.2953C39.4556 75.8544 42.6343 80.0685 48.3923 83.1201C53.787 85.99 60.9255 87.5703 68.4999 87.5703C76.0743 87.5703 83.1946 85.99 88.6075 83.1201ZM68.4999 58.6531C81.0149 58.6531 91.7862 63.4484 93.6208 69.4607H79.0351V68.0076C79.0351 67.0085 78.2177 66.1912 77.2187 66.1912H59.7812C58.7821 66.1912 57.9647 67.0085 57.9647 68.0076V69.4789H43.379C45.1954 63.4484 55.9667 58.6531 68.4999 58.6531ZM61.5976 69.824H75.4022V72.7302H61.5976V69.824ZM43.379 73.1117H57.9647V74.5466C57.9647 75.5456 58.7821 76.363 59.7812 76.363H77.2187C78.2177 76.363 79.0351 75.5456 79.0351 74.5466V73.0935H93.639C91.8226 79.124 81.0513 83.9374 68.4999 83.9374C55.9667 83.9374 45.2136 79.1421 43.379 73.1117Z" fill="white"/>
<path d="M105.191 82.3391V72.7848C105.191 72.6577 105.173 72.5305 105.155 72.4034C105.173 72.0401 105.191 71.6586 105.191 71.2954C105.191 64.7381 101.268 58.6532 94.1295 54.1303C87.2635 49.7709 78.1451 47.3733 68.5 47.3733C58.8549 47.3733 49.7365 49.7709 42.8705 54.1303C35.732 58.635 31.8086 64.7381 31.8086 71.2954V82.3573C31.8086 88.9145 35.732 94.9995 42.8705 99.5223C49.7365 103.882 58.8549 106.279 68.5 106.279C78.1451 106.279 87.2635 103.882 94.1295 99.5223C101.268 94.9995 105.191 88.8963 105.191 82.3391ZM92.1859 96.4526C85.883 100.449 77.473 102.647 68.5 102.647C59.527 102.647 51.117 100.449 44.8141 96.4526C38.7654 92.62 35.4414 87.6067 35.4414 82.3391V81.7215C36.7674 83.5198 38.4203 85.209 40.4002 86.7348C45.6678 90.8036 52.9879 93.6553 60.9982 94.727C61.9973 94.8542 62.9055 94.1639 63.0326 93.1649C63.1598 92.1659 62.4695 91.2577 61.4705 91.1305C46.3943 89.0961 35.4414 80.7588 35.4414 71.2954C35.4414 66.0278 38.7654 61.0145 44.8141 57.2001C51.117 53.204 59.527 51.0061 68.5 51.0061C77.473 51.0061 85.883 53.204 92.1859 57.2001C98.2346 61.0327 101.559 66.0459 101.559 71.2954C101.559 80.7588 90.6057 89.0961 75.5295 91.1305C74.5305 91.2577 73.8402 92.184 73.9674 93.1649C74.0945 94.0731 74.8756 94.7452 75.7656 94.7452C75.8383 94.7452 75.9291 94.7452 76.0018 94.727C84.0121 93.6553 91.3322 90.8217 96.5998 86.7348C98.5797 85.209 100.251 83.5198 101.559 81.7215V82.3391C101.559 87.6067 98.2346 92.62 92.1859 96.4526Z" fill="white"/>
<path d="M113.184 94.6179C112.185 94.6179 111.367 95.4353 111.367 96.4343C111.367 103.555 105.573 109.367 98.4346 109.367C97.4355 109.367 96.6182 110.185 96.6182 111.184C96.6182 112.183 97.4355 113 98.4346 113C107.571 113 115 105.571 115 96.4343C115 95.4353 114.183 94.6179 113.184 94.6179Z" fill="white"/>
<path d="M103.684 96.4343C103.684 99.3224 101.341 101.666 98.4526 101.666C97.4536 101.666 96.6362 102.483 96.6362 103.482C96.6362 104.481 97.4536 105.298 98.4526 105.298C103.339 105.298 107.317 101.32 107.317 96.4343C107.317 95.4353 106.499 94.6179 105.5 94.6179C104.501 94.6179 103.684 95.4353 103.684 96.4343Z" fill="white"/>
<path d="M38.5656 109.367C31.4271 109.367 25.6328 103.555 25.6328 96.4343C25.6328 95.4353 24.8154 94.6179 23.8164 94.6179C22.8174 94.6179 22 95.4353 22 96.4343C22 105.571 29.4291 113 38.5656 113C39.5646 113 40.382 112.183 40.382 111.184C40.382 110.185 39.5646 109.367 38.5656 109.367Z" fill="white"/>
<path d="M38.5657 101.666C35.6776 101.666 33.3345 99.3224 33.3345 96.4343C33.3345 95.4353 32.5171 94.6179 31.5181 94.6179C30.519 94.6179 29.7017 95.4353 29.7017 96.4343C29.7017 101.32 33.6796 105.298 38.5657 105.298C39.5647 105.298 40.3821 104.481 40.3821 103.482C40.3821 102.483 39.5647 101.666 38.5657 101.666Z" fill="white"/>
<path d="M57.0565 28.3736C63.3776 22.0525 73.6403 22.0525 79.9614 28.3736C80.3247 28.7369 80.7788 28.9003 81.2511 28.9003C81.7233 28.9003 82.1774 28.7187 82.5407 28.3736C83.2491 27.6652 83.2491 26.5209 82.5407 25.8125C74.8028 18.0746 62.2333 18.0746 54.4954 25.8125C53.787 26.5209 53.787 27.6652 54.4954 28.3736C55.2038 29.082 56.3481 29.082 57.0565 28.3736Z" fill="white"/>
<path d="M74.5849 35.5484C75.0571 35.5484 75.5112 35.3667 75.8745 35.0216C76.5829 34.3132 76.5829 33.1689 75.8745 32.4605C71.8058 28.3917 65.194 28.3917 61.1253 32.4605C60.4169 33.1689 60.4169 34.3132 61.1253 35.0216C61.8337 35.73 62.978 35.73 63.6864 35.0216C64.9761 33.732 66.6835 33.0236 68.4999 33.0236C70.3163 33.0236 72.0237 33.732 73.3134 35.0216C73.6585 35.3667 74.1308 35.5484 74.5849 35.5484Z" fill="white"/>
<path d="M67.2104 38.7453C66.8652 39.0904 66.6836 39.5445 66.6836 40.0349C66.6836 40.5072 66.8834 40.9794 67.2104 41.3246C67.5373 41.6697 68.0096 41.8513 68.5 41.8513C68.9904 41.8513 69.4445 41.6515 69.7896 41.3246C70.1348 40.9976 70.3164 40.5253 70.3164 40.0349C70.3164 39.5626 70.1166 39.0904 69.7896 38.7453C69.4627 38.4001 68.9904 38.2185 68.5 38.2185C68.0096 38.2185 67.5555 38.4001 67.2104 38.7453Z" fill="white"/>
</g>
<defs>
<clipPath id="clip0">
<rect width="93" height="93" fill="white" transform="translate(22 20)"/>
</clipPath>
</defs>
</svg>

<svg width="138" height="138" fill="none" xmlns="http://www.w3.org/2000/svg"><circle cx="69" cy="69" r="69" fill="#76BD5E"/><g clip-path="url(#clip0)" fill="#fff"><path d="M68.5 91.585h-.109c-.999 0-1.816.799-1.816 1.798s.799 1.816 1.798 1.834h.109c.999 0 1.816-.817 1.816-1.816a1.795 1.795 0 00-1.798-1.816zm20.108-8.465c5.757-3.07 8.936-7.266 8.936-11.825 0-4.559-3.178-8.773-8.936-11.825-5.395-2.87-12.534-4.45-20.108-4.45-7.575 0-14.695 1.58-20.108 4.45-5.758 3.07-8.936 7.266-8.936 11.825 0 4.56 3.178 8.773 8.936 11.825 5.395 2.87 12.533 4.45 20.108 4.45 7.574 0 14.695-1.58 20.108-4.45zM68.5 58.653c12.515 0 23.286 4.795 25.12 10.808H79.036v-1.453c0-1-.817-1.817-1.816-1.817H59.78c-.999 0-1.816.817-1.816 1.817v1.47H43.379c1.816-6.03 12.588-10.825 25.12-10.825zm-6.902 11.171h13.804v2.906H61.598v-2.906zm-18.219 3.288h14.586v1.435c0 .999.817 1.816 1.816 1.816H77.22c.999 0 1.816-.817 1.816-1.816v-1.453H93.64c-1.816 6.03-12.588 10.843-25.14 10.843-12.532 0-23.285-4.795-25.12-10.825z"/><path d="M105.191 82.34v-9.555c0-.127-.018-.254-.036-.382.018-.363.036-.744.036-1.108 0-6.557-3.923-12.642-11.062-17.165-6.866-4.36-15.984-6.757-25.629-6.757-9.645 0-18.764 2.398-25.63 6.757-7.138 4.505-11.061 10.608-11.061 17.165v11.062c0 6.558 3.923 12.642 11.061 17.165 6.867 4.36 15.985 6.757 25.63 6.757s18.763-2.397 25.63-6.757c7.137-4.522 11.06-10.626 11.06-17.182zM92.186 96.452c-6.303 3.996-14.713 6.194-23.686 6.194s-17.383-2.198-23.686-6.194c-6.049-3.833-9.373-8.846-9.373-14.114v-.617c1.326 1.798 2.98 3.487 4.96 5.013 5.267 4.069 12.587 6.92 20.597 7.992 1 .127 1.908-.563 2.035-1.562a1.807 1.807 0 00-1.563-2.035C46.395 89.096 35.442 80.76 35.442 71.296c0-5.267 3.324-10.28 9.373-14.095 6.303-3.996 14.713-6.194 23.686-6.194s17.383 2.198 23.686 6.194c6.049 3.833 9.373 8.846 9.373 14.095 0 9.464-10.953 17.801-26.03 19.835a1.817 1.817 0 00-1.562 2.035c.127.908.909 1.58 1.799 1.58.072 0 .163 0 .236-.018 8.01-1.072 15.33-3.905 20.598-7.992 1.98-1.526 3.651-3.215 4.959-5.013v.617c0 5.268-3.324 10.281-9.373 14.114zm20.998-1.834c-.999 0-1.817.817-1.817 1.816 0 7.121-5.794 12.933-12.932 12.933-1 0-1.817.818-1.817 1.817S97.436 113 98.435 113C107.57 113 115 105.571 115 96.434c0-.999-.817-1.816-1.816-1.816z"/><path d="M103.684 96.434a5.233 5.233 0 01-5.231 5.232c-1 0-1.817.817-1.817 1.816 0 .999.818 1.816 1.817 1.816 4.886 0 8.864-3.978 8.864-8.864 0-.999-.818-1.816-1.817-1.816s-1.816.817-1.816 1.816zm-65.118 12.933c-7.139 0-12.933-5.812-12.933-12.933 0-.999-.818-1.816-1.817-1.816S22 95.435 22 96.434C22 105.571 29.43 113 38.566 113c.999 0 1.816-.817 1.816-1.816 0-.999-.817-1.817-1.816-1.817z"/><path d="M38.566 101.666a5.233 5.233 0 01-5.232-5.232c0-.999-.817-1.816-1.816-1.816-.999 0-1.816.817-1.816 1.816 0 4.886 3.978 8.864 8.864 8.864.999 0 1.816-.817 1.816-1.816 0-.999-.817-1.816-1.816-1.816zm18.49-73.292c6.322-6.322 16.584-6.322 22.905 0 .364.363.818.526 1.29.526a1.86 1.86 0 001.29-.526 1.809 1.809 0 000-2.561c-7.738-7.738-20.308-7.738-28.046 0a1.809 1.809 0 000 2.56 1.809 1.809 0 002.562 0z"/><path d="M74.585 35.548a1.86 1.86 0 001.29-.526 1.809 1.809 0 000-2.561c-4.07-4.07-10.681-4.07-14.75 0a1.809 1.809 0 000 2.56 1.809 1.809 0 002.561 0 6.76 6.76 0 014.814-1.997 6.76 6.76 0 014.813 1.998 1.82 1.82 0 001.272.526zm-7.375 3.197c-.345.345-.526.8-.526 1.29 0 .472.2.944.526 1.29.327.345.8.526 1.29.526s.945-.2 1.29-.526c.345-.327.526-.8.526-1.29 0-.472-.2-.945-.526-1.29-.327-.345-.8-.526-1.29-.526s-.945.181-1.29.526z"/></g><defs><clipPath id="clip0"><path fill="#fff" transform="translate(22 20)" d="M0 0h93v93H0z"/></clipPath></defs></svg>
